X:1
T:Title
%%score { ( 1 4 ) | ( 2 3 ) }
L:1/8
M:6/8
K:C
V:1 treble nm="Grand Piano"
V:4 treble 
V:2 bass 
V:3 bass 
V:1
 z3 z2[Q:1/4=100] [EG] | [EG]2 [EG] [CE]2 [DF] | [EG]3 A3 | G2 G F2 G | E3- E2 [EG] | %5
 [FA]2 [FA] [Ac]B[CFA] | [CFA]2 [CEG] [CEG]2 [EGc] | B2 B A2 B |[M:5/8] [Ec]-[Ec]- [Ec]3 | %9
[M:1/8] [EG] |[M:3/4] e4 z2 | d4 z2 | B2 BB A[DFB] | c4 z2 | e4 z2 | d4 z2 | d2 dd ed | %17
[M:5/8] [Ec]-[Ec]- [Ec]3 |] %18
V:2
 z3 z2 [C,C] | [C,C]2 [C,C] [C,G,]2 [C,A,] | [C,C]3 [F,CF]3 | [G,CE]2 [G,CE] [G,B,D]2 [G,B,] | %4
 [C,G,C]3- [C,G,C]2 [C,C] | [F,C]2 [F,C] z GF, | C,2 C, C,2 C, | [G,DF]2 [G,DF] [G,DF]2 [G,DF] | %8
[M:5/8][K:bass] [C,C]-[C,C]- [C,C]3 |[M:1/8] [C,C] |[M:3/4] [C,C]2 .[C,C]2 F[C,G,] | %11
 [F,A,F]2 [F,A,] [F,A,F]2 [F,A,E] | [G,D]2 [G,D] [G,DF]2[K:bass] G, | z2 z G2 [C,C] | %14
 [C,C]2 .[C,C]2 F[C,G,] | [F,A,F]2 [F,A,] [F,A,]2 [E,G,] | [F,A,F]2 [F,A,F]F G[G,B,F] | %17
[M:5/8][K:bass] [C,C]-[C,C]- [C,C]3 |] %18
V:3
 x6 | x6 | x6 | x6 | x6 | z3 .[F,C]3 | x6 | x6 |[M:5/8][K:bass] x5 |[M:1/8] x | %10
[M:3/4] z2 z .[C,C]3 | x6 | x5[K:bass] x | C,6 | z2 z .[C,C]3 | x6 | z2 z .[G,B,]3 | %17
[M:5/8][K:bass] x5 |] %18
V:4
 x6 | x6 | x6 | x6 | x6 | x6 | x6 | x6 |[M:5/8] x5 |[M:1/8] x |[M:3/4] G2 GG d[Ec] | z2 F c2 c | %12
 x6 | [CE]4- [CE][EG] | G2 GG d[Ec] | z2 F [Fc]2 [Gc] | x6 |[M:5/8] x5 |] %18

